!!!SOCIAL_FUNCTION:	miscellaneous songs
!!!PDT:	1956
!!!OTL: No_243_Song_of_Friendship_(d).krn
!!!LANG: Non-Tone
!!!LING_GROUP: Muskogean
!!!REG: Florida
**kern
*staff1
=1-
*clefF4
*k[f#]
*M2/4
8D\L
8A\J
8A\L
16.F#\L
32A\JJk
=2
4A\
4A\
=3
8A\L
8F#\J
8F#\L
16.D\L
32F#\JJk
=4
16E\LL
16D\J
8D\J
8D\
8r
=5
8BB/L
8D/J
16E\LL
16D\
16.BB\
32D\JJk
=6||
*M5/8
4D\
4D\
8D\
=7||
*M2/4
4A\
8A\L
16.F#\L
32A\JJk
=8
4A\
4A\
=9
8A\L
8F#\J
8F#\L
16.D\L
32F#\JJk
=10||
*M5/8
16E\LL
16D\J
8D\
8D\J
8r
8BB/
=11||
*M2/4
4D\
16E\LL
16D\
16.BB\
32D\JJk
=12
4D\
8D\
8r
==
*-
